X: 1
Z:Frances Tolmie
H:Sung in the nursery at Bracadale Manse, Skye, 1861
B:'One Hundred and Five Songs of Occupation from the Western Isles of Scotland'
B:in 'Journal of the Folk-Song Society', IV:3 (16) 1911, 192-3
N:Lively. Reel time.
N:'dha': dialect = 'do'
L:1/8
Q:1/4=120
M:4/4
F:http://tunearch.org/wiki/Brochan_Lom	 2022-05-02 015857 UT
K:A
c B A2 B A F2 | E B (BA) B2 B2 | c B A2 BA F2 |
w:Broch-an lom, tan-a lom; Broch-an lom sÃ¹gh-ain; Brochan- lom, tan-a lom,
E A A F A2 A2 | c e e e f f e c | B B B A B2 B2&#160;:||
w:Broch-an tan-a sÃ¹gh-ain. Broch-an tan-a, tan-a, tan-a; Brocha-an tan-a sÃ¹gh-ain;
c e e e f f e c | B A A F A2 A2 | c e e e f a e c |
w:Broch-an tan-a, tan-a, tan-a; Broch-an tan-a sÃ¹gh-ain; Broch-an tan-a, tan-a, tan-a,
B B B A B2 B2 |c B A2 B A F2 | C A A F A2 A2 |
w:Broch-an tan-a sÃ¹gh-ain; Broch-an lom, tan-a lom, Broch-an tan-a sÃ¹gh-ain.
c B A F E C D C | B, B B A B2 B2 | c B A F E D C B, |
w:Thug-aibh ar-an dha na gill-ean, Leis a bhroch-an shÃ¹g-ain. Thug-aibh ar-an dha na gill-ean;
A, A A F A2 A2 | c B A F E C D C | B, G G A B2 B2 |
w:Leis a bhroch-an shÃ¹gh-ain; Thug-aibh ar-an dha na gill-ean, Leis a bhroch-an shÃ¹gh-ain,
c B A2 B A F2 | E A A F A2 A2 |]
w:Broch-an lom, tan-a lom, Brocha-an tan-a sÃ¹gh-ain.
T: Orange and Blue
O: Trad
Z: John Chambers &lt;jc:trillian.mit.edu&gt;
N: called a schottische in Skinner SV p.20 (with variations),
N: Hunter  354
N: jig or strathspey in Skye p.121
N: second Kennedy tune-book
N: p.19, BSFC I-23, keep under O&amp;B name alphabetically
M: C
L: 1/8
K: D
  "A7"a&gt;g \
|  "D"f&lt;d ~d2 A&lt;d ~d2 | f&gt;d a&gt;f d2 ef| "Em"g&lt;e ~e2 B&lt;e ~e2 | "A7"c&gt;A e&gt;c A2 ||
"A7"a&gt;g|"D"f&lt;d ~d2 A&lt;d ~d2|f&gt;d a&gt;f d2 (3fga|"G"b&gt;g "D/F#"a&gt;f "Em"g&gt;e "D"f&gt;d"A7"e&gt;c (3ABc "D"d2 |]
"A7"a&gt;g|"D"f&lt;a a2 "/C#"f&lt;a a2|"Bm"f&gt;d a&gt;f "/A"d2 e&gt;f|"Em"g&lt;b b2 "/D"g&lt;b b2 | "A/C#"g&gt;e "/B"b&gt;g e2||
"A7"f&gt;g|"D"f&lt;a a2 "/C#"f&lt;a a2|"Bm"f&gt;d a&gt;f "/A"d2 (3fga|"G"b&gt;g "D/F#"a&gt;f "Em"g&gt;e "D"f&gt;d | "A7"e&gt;c (3ABc "D"d2 |]





